X: 51
T: Skye Boat Song
M: 3/4
L: 1/4
R: waltz
K: Gmaj
C: Sir Harold Boulton
"G"D>E D | G2 G/G/ | "D7"A>B A | d3 | "G" B>A B | "C"E2 E | "G" (D3 | "D" D3) |
w: Speed, bon-nie boat, like a bird on the wing, On-ward, the sail-ors cry
"G"D>E D | G2 G | "D"A>B A | d3 | "Em" B>A B | "C"E2 E | "D" D3 | D3 |
w: Car-ry the lad that's born to be King, O-ver the sea to Skye;
   "Em" B>G B| B3 | "Am" A>E A | A3 | "Em" G>E G | "C" G2 G | "Em" (E3 | E3) |
w: Loud the winds howl, loud the waves roar, thun-der-clouds rend the air;
   "Em" B>G B| B3 | "Am" A>E A | A3 | "Em" G>E G | "C" G2 G | "Em"E3 | "D" D3 |
w: Baff-led our foes stand on the shore, fol-low they will not dare
W: 2.5 times through

% Mostly Bill's chords
